X: 43077
T: Wind That Shakes The Barley, The
R: reel
M: 4/4
K: Dmajor
K: Dmaj
|:"D"A2AB AFED|"G"B2BA BcdB|"D"A2AB AFED|1 "G"gfed "A"BcdB:|2 "G"gfed "A"Bcde||
|:"D"f2fd "G"g2ge|"D"f2fd "A"Bcde|"D"f2fd "G"g2fg|1 "A"afed Bcde:|2 "A"afed BcdB||

